apps/scalable/accessories-thesaurus.svg

<svg id="Capa_1" enable-background="new 0 0 512 512" height="512" viewBox="0 0 512 512" width="512" xmlns="http://www.w3.org/2000/svg" xmlns:xlink="http://www.w3.org/1999/xlink"><linearGradient id="SVGID_1_" gradientUnits="userSpaceOnUse" x1="256" x2="256" y1="511.997" y2=".003"><stop offset="0" stop-color="#a93aff"/><stop offset="1" stop-color="#ff81ff"/></linearGradient><g><g><path d="m507.606 46.817-42.426-42.426c-5.933-5.933-15.445-5.768-21.213 0l-116.606 116.606h-282.361c-24.813 0-45 20.187-45 45v301c0 24.813 20.187 45 45 45h301c24.813 0 45-20.187 45-45v-282.36l116.606-116.606c5.858-5.858 5.858-15.356 0-21.214zm-146.606 420.18c0 8.271-6.729 15-15 15h-301c-8.271 0-15-6.729-15-15v-301c0-8.271 6.729-15 15-15h252.361l-98.033 98.033c-1.647 1.647-2.887 3.654-3.624 5.863l-21.213 63.64c-3.898 11.696 7.255 22.88 18.974 18.974l63.64-21.213c2.209-.736 4.216-1.977 5.863-3.624l98.032-98.033zm-116.742-178.044-31.82 10.607 10.606-31.82 189.103-189.103 21.213 21.213zm210.315-210.316-21.213-21.213 21.213-21.213 21.213 21.213z" fill="url(#SVGID_1_)"/></g></g></svg>

<svg width="512" height="512" viewBox="0 0 512 512" fill="none" xmlns="http://www.w3.org/2000/svg">
<path d="M507.606 46.817L465.18 4.39102C459.247 -1.54198 449.735 -1.37698 443.967 4.39102L327.361 120.997H45C20.187 120.997 0 141.184 0 165.997V466.997C0 491.81 20.187 511.997 45 511.997H346C370.813 511.997 391 491.81 391 466.997V184.637L507.606 68.031C513.464 62.173 513.464 52.675 507.606 46.817V46.817ZM361 466.997C361 475.268 354.271 481.997 346 481.997H45C36.729 481.997 30 475.268 30 466.997V165.997C30 157.726 36.729 150.997 45 150.997H297.361L199.328 249.03C197.681 250.677 196.441 252.684 195.704 254.893L174.491 318.533C170.593 330.229 181.746 341.413 193.465 337.507L257.105 316.294C259.314 315.558 261.321 314.317 262.968 312.67L361 214.637V466.997ZM244.258 288.953L212.438 299.56L223.044 267.74L412.147 78.637L433.36 99.85L244.258 288.953ZM454.573 78.637L433.36 57.424L454.573 36.211L475.786 57.424L454.573 78.637Z" fill="url(#paint0_linear)"/>
<path fill-rule="evenodd" clip-rule="evenodd" d="M75 390C65.0589 390 57 398.059 57 408C57 417.941 65.0589 426 75 426H156C165.941 426 174 417.941 174 408C174 398.059 165.941 390 156 390H75ZM230 390C220.059 390 212 398.059 212 408C212 417.941 220.059 426 230 426H311C320.941 426 329 417.941 329 408C329 398.059 320.941 390 311 390H230Z" fill="url(#paint1_linear)"/>
<defs>
<linearGradient id="paint0_linear" x1="256" y1="511.997" x2="256" y2="0.00305176" gradientUnits="userSpaceOnUse">
<stop stop-color="#A93AFF"/>
<stop offset="1" stop-color="#FF81FF"/>
</linearGradient>
<linearGradient id="paint1_linear" x1="76.4286" y1="408" x2="208.08" y2="298.079" gradientUnits="userSpaceOnUse">
<stop stop-color="#8D01A2"/>
<stop offset="1" stop-color="#FF00D2"/>
</linearGradient>
</defs>
</svg>
